X:1
T:Untitled set dance
M:2/4
L:1/8
S:Roche, vol. 2, No. 302
K:G
GA/B/ ce|dB B2|de/d/ cA|GB BA/G/|FA/B/ ce|dB B2|de/d/ cA|AGGz||
de/f/ ge|dB B2|de/d/ cA|GB B2|de/f/ ge|dB B2|de/d/cA|AG G2||

